X: 192
T: The Scottish Division
C: Bert Murray
R: air, 3/4 march, waltz
B: Bert Murray's "Bon Accord Collection" 1999 p.18
Z: 2011 John Chambers <jc:trillian.mit.edu>
M: 3/4
L: 1/8
K: D
va>f |\
f2 (a>f) ef | d2 A2 d>c | B3 c de | A4 (a>g) |\
f2 (a>f) ef | d2 A2 d>c | B3 c df | e4 (a>g) |
f2 (a>f) ef | d2 A2 d>c | B3 c de | f4 (e>f) |\
g2 B2 a>g | f2 A2 g>f | e3 A ce | d4 :|

%%sep 2 1 500

